icon-themes/breeze_svg/cmd/lc_euroconverter.svg

<svg viewBox="0 0 24 24" xmlns="http://www.w3.org/2000/svg"><path d="m14.355469 5.0351562c-1.249038 0-2.492406.2388813-3.644531.7382813-2.4355505 1.055601-4.0375758 3.0283759-4.5468755 5.2265625h-2.1640625v1h2.0097656c-.0255381.331629-.0288294.665228-.0039062 1h-2.0058594v1h2.1621094c.1369894.593721.3479944 1.181642.6582031 1.751953 2.017867 3.7098 7.0238435 5.273956 11.1796875 3.472656l-.458984-.847656c-3.635151 1.5756-8.0064399.209844-9.7714848-3.035156-.2383043-.438118-.4120876-.887095-.5332031-1.341797h5.7636719v-1h-5.9355469c-.0288327-.335183-.0270929-.668483.0019531-1h6.9335938v-1h-6.7636719c.4908639-1.8446332 1.8729261-3.4857418 3.9335939-4.3789062 2.010315-.8713001 4.358738-.8675001 6.371094 0l.458984-.8476563c-1.153296-.4973-2.395495-.7393812-3.644531-.7382813z" fill="#4d4d4d"/></svg>

<svg xmlns="http://www.w3.org/2000/svg" viewBox="0 0 24 24">
 <path 
     style="fill:#4d4d4d" 
     d="M 14.355469 5.0351562 C 13.106431 5.0351562 11.863063 5.2740375 10.710938 5.7734375 C 8.2753875 6.8290385 6.6733622 8.8018134 6.1640625 11 L 4 11 L 4 12 L 6.0097656 12 C 5.9842275 12.331629 5.9809362 12.665228 6.0058594 13 L 4 13 L 4 14 L 6.1621094 14 C 6.2990988 14.593721 6.5101038 15.181642 6.8203125 15.751953 C 8.8381795 19.461753 13.844156 21.025909 18 19.224609 L 17.541016 18.376953 C 13.905865 19.952553 9.5345761 18.586797 7.7695312 15.341797 C 7.5312269 14.903679 7.3574436 14.454702 7.2363281 14 L 13 14 L 13 13 L 7.0644531 13 C 7.0356204 12.664817 7.0373602 12.331517 7.0664062 12 L 14 12 L 14 11 L 7.2363281 11 C 7.727192 9.1553668 9.1092542 7.5142582 11.169922 6.6210938 C 13.180237 5.7497937 15.52866 5.7535937 17.541016 6.6210938 L 18 5.7734375 C 16.846704 5.2761375 15.604505 5.0340563 14.355469 5.0351562 z "
     />
 </svg>
